X: 1
T: Billy's
M: 6/8
L: 1/8
R: jig
K: Dmaj
|: A/G/ |
FDF AFD | ABc dAG | FDF AFD | EB,E GFE |
FDF ABc | dfe dcd | cBA GEC | EDD D2 :|
|: B/c/ | 
dcd AFD | dcd ecA | =cBc GEC | =cBc dBG |
dcd ABc | dfe dcd | cBA GEC | EDD D2 :|
